svg/Octicons/history.svg

<svg height="1024" width="896" xmlns="http://www.w3.org/2000/svg">
  <path d="M448 64c-90.938 0-175.312 27.531-245.938 74.062L128 64v256h256l-88-88c45.438-24.688 96.688-40 152-40 176.75 0 320 143.219 320 320 0 176.75-143.25 320-320 320-176.781 0-320-143.25-320-320 0-45.562 9.781-88.781 27-128H64v-99.406C24.312 351.5 0 428.594 0 512c0 247.438 200.562 448 448 448 247.438 0 448-200.562 448-448C896 264.562 695.438 64 448 64zM447.031 831L512 768V576h128l64-64-64-64H512l-64-64L320 512l64 64v192L447.031 831z" />
</svg>

<svg xmlns="http://www.w3.org/2000/svg" viewBox="0 0 896 1024"><path d="m448 64c-90.94 0-175.31 27.531-245.94 74.06l-74.06-74.06v256h256l-88-88c45.44-24.688 96.69-40 152-40 176.75 0 320 143.22 320 320 0 176.75-143.25 320-320 320-176.78 0-320-143.25-320-320 0-45.562 9.781-88.78 27-128h-91v-99.41c-39.688 66.906-64 144-64 227.41 0 247.44 200.56 448 448 448 247.44 0 448-200.56 448-448 0-247.44-200.56-448-448-448m-.969 767l64.969-63v-192h128l64-64-64-64h-128l-64-64-128 128 64 64v192l63.03 63"/></svg>
